src/Pure/16/symbolic/places/bookmark-missing-symbolic.svg

<?xml version="1.0" encoding="UTF-8" standalone="no"?>
<svg
   width="16"
   height="16"
   version="1.1"
   id="svg2"
   sodipodi:docname="bookmark-missing-symbolic.svg"
   inkscape:version="1.4.2 (ebf0e940d0, 2025-05-08)"
   xmlns:inkscape="http://www.inkscape.org/namespaces/inkscape"
   xmlns:sodipodi="http://sodipodi.sourceforge.net/DTD/sodipodi-0.dtd"
   xmlns="http://www.w3.org/2000/svg"
   xmlns:svg="http://www.w3.org/2000/svg">
  <sodipodi:namedview
     id="namedview2"
     pagecolor="#ffffff"
     bordercolor="#000000"
     borderopacity="0.25"
     inkscape:showpageshadow="2"
     inkscape:pageopacity="0.0"
     inkscape:pagecheckerboard="0"
     inkscape:deskcolor="#d1d1d1"
     inkscape:zoom="49.6875"
     inkscape:cx="8"
     inkscape:cy="8"
     inkscape:window-width="1920"
     inkscape:window-height="1010"
     inkscape:window-x="0"
     inkscape:window-y="0"
     inkscape:window-maximized="1"
     inkscape:current-layer="svg2" />
  <defs
     id="defs1">
      <style
          id="current-color-scheme"
          type="text/css">
          .ColorScheme-Text { color:#363636; }
          .ColorScheme-NeutralText { color:#f67400; }
          .ColorScheme-PositiveText { color:#37c837; }
          .ColorScheme-NegativeText { color:#f44336; }
          .ColorScheme-Highlight { color:#3daee9; }
      </style>
  </defs>
  <path
     id="path1"
     style="fill:currentColor"
     class="ColorScheme-Text"
     d="M 8.0019531 0.36523438 A 0.50005 0.50005 0 0 0 7.5332031 0.68554688 L 5.6621094 5.5390625 L 0.47460938 5.8125 A 0.50005 0.50005 0 0 0 0.18359375 6.7011719 L 4.21875 9.984375 L 2.8847656 15.005859 A 0.50005 0.50005 0 0 0 3.640625 15.554688 L 8 12.730469 L 12 15.322266 L 12 14 A 1.0001 1.0001 0 0 1 12.134766 13.5 A 1.0001 1.0001 0 0 1 12 13 L 12 10.808594 L 11.78125 9.984375 L 12 9.8066406 L 12 8.515625 L 10.900391 9.4121094 A 0.50005 0.50005 0 0 0 10.732422 9.9277344 L 11.816406 14.011719 L 8.2714844 11.714844 A 0.50005 0.50005 0 0 0 7.7285156 11.714844 L 4.1835938 14.011719 L 5.2675781 9.9277344 A 0.50005 0.50005 0 0 0 5.0996094 9.4121094 L 1.8242188 6.7441406 L 6.0390625 6.5214844 A 0.50005 0.50005 0 0 0 6.4785156 6.2011719 L 8 2.2558594 L 9.5214844 6.2011719 A 0.50005 0.50005 0 0 0 9.9609375 6.5214844 L 14.175781 6.7441406 L 13.861328 7 L 15 7 A 1.0001 1.0001 0 0 1 15.363281 7.0703125 L 15.816406 6.7011719 A 0.50005 0.50005 0 0 0 15.525391 5.8125 L 10.337891 5.5390625 L 8.4667969 0.68554688 A 0.50005 0.50005 0 0 0 8.0019531 0.36523438 z " />
  <path
     id="path2"
     style="fill:currentColor"
     class="ColorScheme-NeutralText warning"
     d="M 13 8 L 13 13 L 15 13 L 15 8 L 13 8 z M 13 14 L 13 16 L 15 16 L 15 14 L 13 14 z " />
</svg>

<svg width="16" height="16" version="1.1" xmlns="http://www.w3.org/2000/svg">
 <defs>
  <style id="current-color-scheme" type="text/css">.ColorScheme-Text { color:#363636; }</style>
 </defs>
 <path d="m8.002 0.36523a0.50005 0.50005 0 0 0-0.46875 0.32031l-1.8711 4.8535-5.1875 0.27344a0.50005 0.50005 0 0 0-0.29102 0.88867l4.0352 3.2832-1.334 5.0215a0.50005 0.50005 0 0 0 0.75586 0.54883l4.3594-2.8242 4 2.5918v-1.3223a1.0001 1.0001 0 0 1 0.13477-0.5 1.0001 1.0001 0 0 1-0.13477-0.5v-2.1914l-0.21875-0.82422 0.21875-0.17773v-1.291l-1.0996 0.89648a0.50005 0.50005 0 0 0-0.16797 0.51562l1.084 4.084-3.5449-2.2969a0.50005 0.50005 0 0 0-0.54297 0l-3.5449 2.2969 1.084-4.084a0.50005 0.50005 0 0 0-0.16797-0.51562l-3.2754-2.668 4.2148-0.22266a0.50005 0.50005 0 0 0 0.43945-0.32031l1.5215-3.9453 1.5215 3.9453a0.50005 0.50005 0 0 0 0.43945 0.32031l4.2148 0.22266-0.31445 0.25586h1.1387a1.0001 1.0001 0 0 1 0.36328 0.070312l0.45312-0.36914a0.50005 0.50005 0 0 0-0.29102-0.88867l-5.1875-0.27344-1.8711-4.8535a0.50005 0.50005 0 0 0-0.46484-0.32031z" style="fill:currentColor" class="ColorScheme-Text"/>
 <path class="warning" d="M13 8v5h2V8zm0 6v2h2v-2z" fill="#ff7f2a"/>
</svg>
